!!!COM: Music21
!!!OTL: Polca
!!!OMV: pezas_polca_polca-2_polca-partitura.musicxml
**kern
*part1
*staff1
*I"Bagpipes
*I'Bag
*clefG^2
*k[]
*M2/4
=1
!LO:TX:a:t=Andante
8.aaL
16ggJk
8.bbL
16aaJk
=
[4gg
16ggLL]
16cc
16dd
16eeJJ
=
8ggL
16ggL
16aaJJ
16ggLL
16ff
16ee
16ddJJ
=
8eeL
[8ccJ
8ccL]
8ccJ
=
8.aaL
16ggJk
8.bbL
16aaJk
=
[4gg
16ggLL]
16cc
16dd
16eeJJ
!!linebreak:original
=
8ggL
16ggL
16aaJJ
16ggLL
16ff
16ee
16ddJJ
=
2cc
=||
*M2/4
!LO:TX:a:t=Andante
8.aaL
16ggJk
8.bbL
16aaJk
=
[4gg
16ggLL]
16cc
16dd
16eeJJ
=
8ggL
16ggL
16aaJJ
16ggLL
16ff
16ee
16ddJJ
=
8eeL
[8ccJ
8ccL]
8ccJ
=
8.aaL
16ggJk
8.bbL
16aaJk
!!linebreak:original
=
[4gg
16ggLL]
16cc
16dd
16eeJJ
=
8ggL
16ggL
16aaJJ
16ggLL
16ff
16ee
16ddJJ
=
2cc
=||
8eeL
16eeL
16ccJJ
8eeL
16eeL
16ccJJ
=
8.aaL
16bbJk
16aaLL
16gg
16ff
16eeJJ
=
8ddL
16ddL
16bJJ
8ddL
16ddL
16bJJ
=
8.ggL
16aaJk
16ggLL
16ff
16ee
16ddJJ
!!linebreak:original
=
8eeL
16eeL
16ccJJ
8eeL
16eeL
16ccJJ
=
4aa
16aaLL
16gg
16ff
16eeJJ
=
4gg
16ggLL
16ff
16ee
16ddJJ
=
4ff
16eeLL
16dd
16cc
16bJJ
=
4gg
16ffLL
16ee
16dd
16ccJJ
=
4aa
16aaLL
16gg
16ff
16aaJJ
=
4gg
4ccc
!!linebreak:original
=
16bbLL
16aa
16gg
16ffJJ
16ggLL
16ff
16ee
16ddJJ
=||
2cc
=||
16ccLL
16gg
16ee
16ggJJ
8ccc
8r
==
*-
!!!system-decoration: s1,s2
